X:147
T:Three Sharp Knives No1(?) HA.146
T:Three Case Knives,aka. HA.146
T:Three Rusty Swords,aka. HA.146
T:Rusty Gully,aka. HA.146
M:6/4
L:1/8
Q:3/4=80
S:Henry Atkinson’s original MS,Hartburn,N’umberland,1694.
O:England
A:Hartburn,Northumberland
N:A key sig. of Gmaj results in a version very like
N:”Three Case Knives (or Three Rusty Swords)”.
N:The Gmix setting (G root; no sharps), however, would be interesting,
N:whether or not intended NBr
N:Aka Lady Susan Montgomery Hp, Jock & Tam, Punchanello’s Hp, Risty
N:Gully,.
H:1/8
Z:vmp.Neil Brookes, Jan.2004
K:G
“_No Key Sig in MS”GABc d2G2d2G2|F2A4c2B2A2|\
GABc d2G2d2D2|D2G4B2A2G2:|
|:g2 ag f2 gf e2 ag|f2d4f2e2d2|c2 dc B2 cB A2 dc|B2G2-G2B2A2G2:|

